static/icons/clockwise.svg

<svg xmlns="http://www.w3.org/2000/svg" width="24" height="24" fill="none">
  <path fill="#000" fill-rule="evenodd" d="M9.11395 2.45242c1.57155-.54037 3.27405-.59805 4.87975-.16566 1.6058.43243 3.0413 1.33536 4.1111 2.59151 1.0702 1.25648 1.7225 2.80574 1.8654 4.43995.1428 1.63428-.2312 3.27058-1.0692 4.68788-.8377 1.4171-2.0977 2.5456-3.607 3.2377-1.4437.6622-3.0516.8958-4.6255.6758l1.9124 2.6182c.1201.2265.1506.4868.0861.7331-.0646.2463-.22.4621-.4377.6078-.2177.1456-.483.2113-.7473.1851-.2643-.0263-.5099-.1428-.6915-.3281l-3.58184-4.8879c-.16336-.2277-.22676-.5076-.17659-.7795.05018-.2719.20993-.5142.44496-.6748l5.11537-3.4226c.2371-.1147.5095-.1439.7672-.0822.2578.0617.4836.2102.636.4181.1525.208.2212.4616.1938.7141-.0275.2526-.1494.4872-.3433.6608l.0108.0018-3.3181 2.2201c.0799-.0064.1618-.0032.2444.0105 1.249.2076 2.5326.0367 3.6771-.4882 1.1442-.5248 2.092-1.3768 2.7191-2.4376.6269-1.0604.9046-2.2802.7983-3.49594-.1062-1.2158-.5918-2.37372-1.3955-3.31732-.8039-.94393-1.888-1.6284-3.1085-1.95708-1.2208-.32872-2.5157-.28469-3.70945.12578-1.19357.41039-2.22547 1.16616-2.95955 2.16139-.32783.44446-.9539.539-1.39836.21117-.44445-.32783-.539-.9539-.21117-1.39836.97845-1.32653 2.34701-2.32509 3.91878-2.86552z" clip-rule="evenodd"/>
</svg>

<svg width="24" height="24" viewBox="0 0 24 24" fill="none" xmlns="http://www.w3.org/2000/svg">
<path fill-rule="evenodd" clip-rule="evenodd" d="M9.11395 2.45242C10.6855 1.91205 12.388 1.85437 13.9937 2.28676C15.5995 2.71919 17.035 3.62212 18.1048 4.87827C19.175 6.13475 19.8273 7.68401 19.9702 9.31822C20.113 10.9525 19.739 12.5888 18.901 14.0061C18.0633 15.4232 16.8033 16.5517 15.294 17.2438C13.8503 17.906 12.2424 18.1396 10.6685 17.9196L12.5809 20.5378C12.701 20.7643 12.7315 21.0246 12.667 21.2709C12.6024 21.5172 12.447 21.733 12.2293 21.8787C12.0116 22.0243 11.7463 22.09 11.482 22.0638C11.2177 22.0375 10.9721 21.921 10.7905 21.7357L7.20866 16.8478C7.0453 16.6201 6.9819 16.3402 7.03207 16.0683C7.08225 15.7964 7.242 15.5541 7.47703 15.3935L12.5924 11.9709C12.8295 11.8562 13.1019 11.827 13.3596 11.8887C13.6174 11.9504 13.8432 12.0989 13.9956 12.3068C14.1481 12.5148 14.2168 12.7684 14.1894 13.0209C14.1619 13.2735 14.04 13.5081 13.8461 13.6817L13.8569 13.6835L10.5388 15.9036C10.6187 15.8972 10.7006 15.9004 10.7832 15.9141C12.0322 16.1217 13.3158 15.9508 14.4603 15.4259C15.6045 14.9011 16.5523 14.0491 17.1794 12.9883C17.8063 11.9279 18.084 10.7081 17.9777 9.49236C17.8715 8.27656 17.3859 7.11864 16.5822 6.17504C15.7783 5.23111 14.6942 4.54664 13.4737 4.21796C12.2529 3.88924 10.958 3.93327 9.76425 4.34374C8.57068 4.75413 7.53878 5.5099 6.8047 6.50513C6.47687 6.94959 5.8508 7.04413 5.40634 6.7163C4.96189 6.38847 4.86734 5.7624 5.19517 5.31794C6.17362 3.99141 7.54218 2.99285 9.11395 2.45242Z" fill="black"/>
</svg>
